X: 111
T: Dziatki niewinne, panienki uczciwe,
C: Mikołaj Gomółka
%%abc-version 2.0
%%abcx-abcm2ps-target-version 5.9.1 (29 Sep 2008)
%%abc-creator hum2abc beta
%%abcx-conversion-date 2021/10/04 07:59:10
%%abc-edited-by Marta Lawrence
%%abcx-initial-encoding-date 2020-02-18
%%humdrum-veritas 2500193462
%%humdrum-veritas-data 2143457741
%%linebreak <none>
%%barnumbers 0
L: 1/4
M: C|
N: Derived from pl-wn--sd-xvi-qu-273--113_gomolka-mikolaj--dziatki-niewinne-panienki-uczciwe.krn
%%staves [1 2 3 4]
V: 1
V: 2 clef=alto
V: 3 clef=alto
V: 4
K: Bb
[V:1] A4A2A2 [|] 
[V:2] =E4E3F [|] 
[V:3] C4C2C2 [|] 
[V:4] A,4A,2A,2 [|] 
[V:1] B4A2A2 [|] 
[V:2] G2G2C4 [|] 
[V:3] D2>F2F2=E2 [|] 
[V:4] G,4A,2A,2 [|] 
[V:1] G2F2G2A2 [|] 
[V:2] D2D2D2C4 [|] 
[V:3] D2>C2D=EF4 [|] 
[V:4] B,4B,2A,2 [|] 
[V:1] B4A2B2 [|] 
[V:2] B,2C2B,2 [|] 
[V:3] =E2F2D2 [|] 
[V:4] G,4F,2G,2 [|] 
[V:1] c2A2>B2c2 [|] 
[V:2] F,G,A,B,CF,F2 [|] 
[V:3] C2C2F,3G, [|] 
[V:4] A,2A,2A,4 [|] 
[V:1] CD=EFG2A2 [|] 
[V:2] =E2A,2B,2C2 [|] 
[V:3] A,B,CD=E2F2 [|] 
[V:4] A,2A,2G,2F,2 [|] 
[V:1] BGc4B2 [|] 
[V:2] G2C2G3F [|] 
[V:3] D=EFEED/C/D2 [|] 
[V:4] G,2A,2G,4 [|] 
[V:1] c2A2A2A2 [|] 
[V:2] =E2F2F2F2 [|] 
[V:3] C2C2C2D2 [|] 
[V:4] C,2F,2>=E,2D,C, [|] 
[V:1] A2A2A2B2 [|] 
[V:2] F2=E2>F2G2 [|] 
[V:3] D2C2C2B,2 [|] 
[V:4] D,2A,,2A,2G,3 [|] 
[V:1] B2A2G4 [|] 
[V:2] D2C2D2CB, [|] 
[V:3] G,2A,2B,2A,G, [|] 
[V:4] F,F,4=E,2 [|] 
[V:1] F2G2A2A2 [|] 
[V:2] A,2=E2F2F2 [|] 
[V:3] A,B,C2C2D2 [|] 
[V:4] F,2C,2F,2D,2 [|] 
[V:1] A2A2A2G2 [|] 
[V:2] =EDC2C2B,2 [|] 
[V:3] C2F2>=E2D2 [|] 
[V:4] A,2>G,2F,2G,2 [|] 
[V:1] F2G2A4 [|] 
[V:2] A,2A,2F4 [|] 
[V:3] D2D2C4 [|] 
[V:4] D,2>C,2A,,3B,, [|] 
[V:1] G32 |]  
[V:2] =E32 |]  
[V:3] !fermata!C16x16 |]  
[V:4] C,32 |]  


